src/assets/images/header/icon-user-active.svg

<svg viewBox="0 0 36 36" fill="none" xmlns="http://www.w3.org/2000/svg">
<circle cx="18" cy="18" r="18" fill="#2036CA"/>
<path d="M18.0888 20.0078C18.2049 20.0173 18.3715 20.0421 18.5458 20.1309C18.7715 20.2459 18.9552 20.4296 19.0702 20.6553C19.1589 20.8295 19.1828 20.9962 19.1923 21.1123C19.2004 21.2125 19.2011 21.3267 19.2011 21.4219C19.2007 22.474 19.2007 23.526 19.2011 24.5781C19.2011 24.6734 19.2005 24.7874 19.1923 24.8877C19.1828 25.0039 19.159 25.1704 19.0702 25.3447C18.9552 25.5705 18.7715 25.7541 18.5458 25.8691C18.3715 25.9579 18.2049 25.9827 18.0888 25.9922C17.9885 26.0004 17.8745 26 17.7792 26C15.4773 25.9992 13.1748 25.9877 10.8729 26C10.8158 26.0003 10.7014 26.0006 10.5927 25.9814C10.0959 25.8938 9.70663 25.5046 9.61903 25.0078C9.5999 24.8991 9.60017 24.7846 9.60047 24.7275C9.60299 24.2549 9.5796 23.7732 9.662 23.3057C9.954 21.6496 11.2501 20.3526 12.9061 20.0605C13.252 19.9996 13.6482 19.9999 14.2294 20C15.4126 20.0003 16.596 20.0005 17.7792 20C17.8745 20 17.9885 19.9996 18.0888 20.0078ZM23.9286 20.4033C24.3157 20.5157 24.6651 20.7169 24.9511 20.9814L25.6727 20.5732L26.4003 21.8047L25.6786 22.2129C25.7707 22.592 25.7707 22.9871 25.6786 23.3662L26.4003 23.7734L25.6727 25.0049L24.9511 24.5977C24.6614 24.8658 24.311 25.0633 23.9286 25.1748V25.9893H22.4725V25.1748C22.0902 25.0633 21.7398 24.8657 21.4501 24.5977L20.7284 25.0049L20.0009 23.7734L20.7225 23.3672C20.6303 22.9879 20.6303 22.5922 20.7225 22.2129L20.0009 21.8047L20.7284 20.5732L21.4501 20.9814C21.7398 20.7133 22.0902 20.5148 22.4725 20.4033V19.5898H23.9286V20.4033ZM23.2011 22.0781C23.0082 22.0781 22.8229 22.153 22.6864 22.2861C22.55 22.4194 22.4726 22.6006 22.4725 22.7891C22.4725 22.9777 22.5499 23.1586 22.6864 23.292C22.8229 23.4253 23.0081 23.5 23.2011 23.5C23.3939 23.4999 23.5793 23.4253 23.7157 23.292C23.852 23.1587 23.9286 22.9775 23.9286 22.7891C23.9285 22.6006 23.8521 22.4194 23.7157 22.2861C23.5793 22.1529 23.3939 22.0782 23.2011 22.0781ZM16.8007 10C19.2307 10 21.2011 11.9704 21.2011 14.4004C21.2008 16.8302 19.2306 18.7998 16.8007 18.7998C14.3708 18.7998 12.4015 16.8302 12.4013 14.4004C12.4013 11.9704 14.3707 10 16.8007 10Z" fill="white"/>
</svg>

<svg xmlns="http://www.w3.org/2000/svg" fill="none" viewBox="0 0 36 36"><circle cx="18" cy="18" r="18" fill="#2036ca"/><path fill="#fff" d="M18.089 20.008c.116.01.283.034.457.123a1.2 1.2 0 0 1 .524.524c.089.174.113.341.122.457.008.1.01.215.01.31v3.156c0 .095-.002.21-.01.31-.01.116-.033.282-.122.457a1.2 1.2 0 0 1-.524.524 1.2 1.2 0 0 1-.457.123c-.1.008-.214.008-.31.008-2.302 0-4.604-.012-6.906 0-.057 0-.172 0-.28-.019a1.2 1.2 0 0 1-.993-1.254c.003-.472-.02-.954.062-1.421a4 4 0 0 1 3.244-3.245C13.252 20 13.648 20 14.23 20h3.55c.096 0 .21 0 .31.008m5.84.395c.387.113.736.314 1.022.578l.722-.408.727 1.232-.721.408c.092.379.092.774 0 1.153l.721.407-.727 1.232-.722-.407a2.56 2.56 0 0 1-1.022.577v.814h-1.456v-.814a2.56 2.56 0 0 1-1.023-.577l-.722.407-.727-1.232.721-.406a2.44 2.44 0 0 1 0-1.154l-.721-.408.727-1.232.722.408c.29-.268.64-.466 1.023-.578v-.813h1.456zm-.728 1.675a.74.74 0 0 0-.515.208.7.7 0 0 0-.213.503c0 .189.077.37.213.503a.737.737 0 0 0 1.03 0 .704.704 0 0 0 0-1.006.74.74 0 0 0-.515-.208M16.801 10a4.4 4.4 0 1 1-.001 8.802 4.4 4.4 0 0 1 0-8.802"/></svg>
